X:1
T: Merrily Danced the Quaker's Wife
C:
R:Jig
Q:180
K:G
M:6/8
L:1/16
|:G2A2B2 D4B2|c4B2 A4G2|G2A2B2 D4D2|E6G6|
G2A2B2 D4B2|A4G2 E4D2|G2A2B2 D4D2|E6G6|
d2c2B2 e2d2c2|d2c2B2 A2B2c2|d2c2B2 e2f2g2|B6d6|
d2c2B2 g2f2e2|d2c2B2 A4G2|G2A2B2 D4D2|E6G6:|
